X: 1
T: Yi4yong3jun1 Jin4xing2qu3
T: \^a\~a\'a\oa
T: March of the Volunteers
C: Music: Nie Er
C: Words: Tian Han
N: Written 1935, adopted 1949
N: See http://en.wikipedia.org/wiki/March_of_the_Volunteers for history of this song.
Q: 1/4=74
M: 2/4
L: 1/8
K: G
[| "G"G>B dd | "C"e2 "G"d2 | "G"B>G "D"(3ddd | "G"B2 G2 | "G"(3DDD "D"(3DDD | "G"D3 D | "G"G3 G |
| "G"G>G "D"DE/F/ | "G"G2 G2 | "tacit"zB GA/B/ | "G"d2 d2 | "G"B>B G>B | "G"d>B "D"A2 | "Am6"A4 |
| "Am6"e2 "G"d2 | "D"A2 "G"B2 | "G"dB zd | "G"BA/B/ G2 | "G"B3 z | "G"D>E FF | "Em"B>B "D"dd | "Am/G"AA/A/E2 |
| "Am/G"A2- "D/F#"AD | "G"G3 G | "G"B3 B | "D"d4 | "G"G>B dd | "C"e2 "G"d2 | "G"B>G "D"(3ddd |
| "G"B2 G2 | "G"D2 G2 | "G"BG (3ddd | "G"B2 G2 | "G"D2 G2 | "G"D2 G2 | "G"D2 G2 | "G"G4 |]
%
W: \,c
W: \"a\"a\`a\"e\^a\oa\"e\`a\^e\`a\"e\~n\"i\'e
W: \,c\'e\"e\`e\`a\,c\oa
W: \`e\`e\"e\'a\^e\'e\^e
W: 
W: \`a\"e\'a\oa
W: \'i\"i\oa\oa\^a\,c
W: \'i\"i\oa\oa\^a\,c
W: \^a\,c\^a\,c
W:
W: Q\^eli! Byun zu nl de rnmen!
W: B\'e w\'imen de xiru zhchng w\'imen xnde chngchng!
W: Zh\,cnghu Mnz doli\'eo zi w\`iixi\'ende shhu,
W: Mige rn bipzhe fch zihude h\'iush\`ing.
W: Q\^eli! Q\^eli! Q\^eli!
W: W\'imen wnzhngyxn,
W: Mozhe drn de pohu\'i, Qinjn!
W: Mozhe drn de pohu\'i, Qinjn!
W: Qinjn! Qinjn! Jn!
W:
W: Arise! All who refuse to be slaves!
W: Let our flesh and blood become our new Great Wall!
W: As the Chinese nation faces its greatest peril,
W: All forcefully expend their last cries.
W: Arise! Arise! Arise!
W: Our million hearts beat as one,
W: Brave the enemy's fire, March on!
W: Brave the enemy's fire, March on!
W: March on! March on! On!
